Obsidian/actions/16s/format-border-set-internal.svg

<svg viewBox="0 0 16 16" xmlns="http://www.w3.org/2000/svg"><g transform="translate(-421.71429 -531.79074)"><path d="m2 1v1 5h1v-5h5v-1h-5zm7 0v1h5v5h1v-5-1h-1zm-7 7v5 1h1 5v-1h-5v-5zm12 0v5h-5v1h5 1v-1-5z" fill="#4f575f"/><g fill="#f2f2f2"><path d="m8 1v6h-6v1h6v6h1v-6h6v-1h-6v-6z" transform="translate(421.71429 531.79074)"/><path d="m435.71429 533.79074v5h-5v-5zm-6 0v5h-5v-5zm6 6v5h-5v-5zm-6 0v5h-5v-5z" fill-opacity=".5"/></g></g></svg>

<svg xmlns="http://www.w3.org/2000/svg" viewBox="0 0 16 16">
  <defs id="defs3051">
    <style type="text/css" id="current-color-scheme">
      .ColorScheme-Text {
        color:#f2f2f2;
      }
      .ColorScheme-ViewBackground {
        color:#4f575f;
      }
      </style>
  </defs>
<g transform="translate(-421.71429,-531.79074)">
 <path style="fill:currentColor;fill-opacity:1;stroke:none" 
     d="M 2 1 L 2 2 L 2 7 L 3 7 L 3 2 L 8 2 L 8 1 L 3 1 L 2 1 z M 9 1 L 9 2 L 14 2 L 14 7 L 15 7 L 15 2 L 15 1 L 14 1 L 9 1 z M 2 8 L 2 13 L 2 14 L 3 14 L 8 14 L 8 13 L 3 13 L 3 8 L 2 8 z M 14 8 L 14 13 L 9 13 L 9 14 L 14 14 L 15 14 L 15 13 L 15 8 L 14 8 z "
     class="ColorScheme-ViewBackground"
     />
 <path style="fill:currentColor;fill-opacity:1;stroke:none" 
     d="M 8 1 L 8 7 L 2 7 L 2 8 L 8 8 L 8 14 L 9 14 L 9 8 L 15 8 L 15 7 L 9 7 L 9 1 L 8 1 z "
       transform="translate(421.71429,531.79074)"
     class="ColorScheme-Text"
     />
 <path style="fill:currentColor;fill-opacity:0.5;stroke:none" 
     d="m 435.71429,533.79074 0,5 -5,0 0,-5 5,0 z m -6,0 0,5 -5,0 0,-5 5,0 z m 6,6 0,5 -5,0 0,-5 5,0 z m -6,0 0,5 -5,0 0,-5 5,0 z"
     class="ColorScheme-Text"
     />
  </g>
</svg>
